X:666
T:Reel 666
M:4/4
K:Emin
L:1/8
eA| (3GFE ED B,E (3EFE |BAFD A2GA||Bee^d eBBA|GFEF GABA:||2GEEF GAFA|GF^df e2|ef|gfed BeGB|dcdA FDDF| (3GFE BE GEEG|Bcdf e2ef| (3gfe  (3fed eBB^c|dBAG FDDF| (3EFE AF GABA|Beef e2|
